brandFactory_export/2.Regular/Equipo _2Regular.svg

<?xml version="1.0" encoding="UTF-8"?>
<svg width="24px" height="24px" viewBox="0 0 24 24" version="1.1" xmlns="http://www.w3.org/2000/svg" xmlns:xlink="http://www.w3.org/1999/xlink">
    <title>2.Regular/Equipo _2Regular</title>
    <g id="Symbols" stroke="none" stroke-width="1" fill="none" fill-rule="evenodd">
        <g id="2.Regular/Equipo-_2Regular" fill="#5CB615" fill-rule="nonzero">
            <path d="M17.7277311,8.73445378 C17.492437,8.95294118 17.4453782,9.37983193 17.4453782,9.70252101 C17.4453782,10.0218487 17.492437,10.4487395 17.7277311,10.6605042 C17.9596639,10.8756303 18.4,10.9193277 18.7294118,10.9193277 C19.0588235,10.9193277 19.4957983,10.8756303 19.7243697,10.6638655 C19.9563025,10.4487395 20.0033613,10.0252101 20.0033613,9.70252101 C20.0033613,9.37983193 19.9529412,8.95294118 19.7210084,8.73445378 C19.4890756,8.51932773 19.0521008,8.4789916 18.7260504,8.4789916 C18.4,8.4789916 17.9630252,8.51932773 17.7277311,8.73445378 L17.7277311,8.73445378 Z M16.7058824,11.692437 C16.2151261,11.2420168 15.9663866,10.5731092 15.9663866,9.70252101 C15.9663866,8.83193277 16.2151261,8.15966387 16.7058824,7.70588235 C17.1764706,7.26890756 17.8588235,7.05042017 18.7294118,7.05042017 C19.6033613,7.05042017 20.2789916,7.26890756 20.7529412,7.7092437 C21.2403361,8.16302521 21.4857143,8.83529412 21.4857143,9.70588235 C21.4857143,10.5764706 21.2369748,11.2453782 20.7529412,11.6957983 C20.2823529,12.1294118 19.6033613,12.3512605 18.7294118,12.3512605 C17.8554622,12.3478992 17.1764706,12.1260504 16.7058824,11.692437 L16.7058824,11.692437 Z M3.90252101,8.72436975 C3.67058824,8.94285714 3.62016807,9.3697479 3.62016807,9.69243697 C3.62016807,10.0117647 3.67058824,10.4386555 3.89915966,10.6537815 C4.12773109,10.8655462 4.56806723,10.9092437 4.89411765,10.9092437 C5.22016807,10.9092437 5.6605042,10.8655462 5.89579832,10.6504202 C6.12773109,10.4352941 6.17815126,10.0117647 6.17815126,9.69243697 C6.17815126,9.37310924 6.12773109,8.94285714 5.89579832,8.72436975 C5.6605042,8.5092437 5.22352941,8.46554622 4.89747899,8.46554622 C4.57142857,8.46554622 4.13109244,8.5092437 3.90252101,8.72436975 L3.90252101,8.72436975 Z M4.89747899,12.3411765 C4.02689076,12.3411765 3.34789916,12.1193277 2.87731092,11.6857143 C2.38991597,11.2352941 2.14117647,10.5663866 2.14117647,9.69579832 C2.14117647,8.82521008 2.38991597,8.15294118 2.87731092,7.69915966 C3.34789916,7.26218487 4.02689076,7.04033613 4.89747899,7.04033613 C5.76806723,7.04033613 6.45042017,7.25882353 6.9210084,7.69579832 C7.41176471,8.14957983 7.6605042,8.82184874 7.6605042,9.69243697 C7.6605042,10.5630252 7.41176471,11.2319328 6.9210084,11.6857143 C6.44705882,12.1193277 5.76806723,12.3411765 4.89747899,12.3411765 Z M11.7277311,5.52436975 C11.3176471,5.5210084 10.9882353,5.20168067 10.9915966,4.80504202 L11.0084034,1.71932773 C11.0117647,1.32605042 11.3411765,1.01008403 11.7478992,1.01008403 L11.7512605,1.01008403 C12.1613445,1.01344538 12.4907563,1.33277311 12.487395,1.72941176 L12.4705882,4.81512605 C12.4672269,5.20840336 12.1378151,5.52436975 11.7310924,5.52436975 L11.7277311,5.52436975 L11.7277311,5.52436975 Z M8.51428571,6.23697479 L7.12605042,4.88235294 C6.84033613,4.60336134 6.84033613,4.15294118 7.13277311,3.87394958 C7.42184874,3.59831933 7.89243697,3.59831933 8.17815126,3.87731092 L9.56638655,5.23193277 C9.85210084,5.51092437 9.85210084,5.96470588 9.56302521,6.24369748 C9.41848739,6.38151261 9.2302521,6.45210084 9.04201681,6.45210084 C8.85042017,6.45210084 8.65882353,6.37815126 8.51428571,6.23697479 L8.51428571,6.23697479 Z M14.4302521,6.4487395 C14.2453782,6.4487395 14.0537815,6.38151261 13.9092437,6.24369748 C13.6168067,5.96806723 13.6168067,5.51764706 13.902521,5.23529412 L15.2907563,3.88067227 C15.5764706,3.59831933 16.0470588,3.59831933 16.3394958,3.87394958 C16.6285714,4.14957983 16.6319328,4.60336134 16.3428571,4.88235294 L14.9546218,6.23697479 C14.8134454,6.37815126 14.6218487,6.4487395 14.4302521,6.4487395 Z M22.0941176,21.2352941 L22.1411765,16.4521008 C22.1411765,16.1260504 22.0773109,15.6722689 21.7647059,15.3596639 C21.4151261,15.0067227 20.8336134,14.9361345 20.4067227,14.9361345 L17.0453782,14.9361345 C17.0016807,14.9361345 16.9478992,14.9327731 16.9008403,14.9361345 L16.887395,14.9361345 C16.7327731,14.9394958 16.5680672,14.9327731 16.4033613,14.9361345 C16.2252101,14.9394958 15.9529412,14.9361345 15.794958,14.8789916 C15.6672269,14.8352941 15.4319328,14.6705882 15.3411765,14.5697479 C15.2403361,14.4588235 14.9714286,14.092437 14.9714286,14.092437 L12.5714286,10.9798319 L12.5714286,12.6840336 L14.2621849,14.8252101 L14.994958,15.7495798 C14.994958,15.7495798 15.1663866,15.9445378 15.2302521,16.092437 C15.2907563,16.2268908 15.307563,16.5159664 15.307563,16.6067227 L15.2907563,18.112605 L15.2571429,21.2352941 L19.3680672,21.2352941 L19.3680672,17.9613445 C19.3680672,17.5647059 19.7008403,17.2487395 20.107563,17.2487395 C20.5142857,17.2487395 20.8470588,17.5680672 20.8470588,17.9613445 L20.8470588,21.2352941 L22.0941176,21.2352941 L22.0941176,21.2352941 Z M11.0521008,12.6739496 L11.0521008,10.9697479 L8.65210084,14.0857143 C8.65210084,14.0857143 8.38319328,14.4521008 8.28235294,14.5630252 C8.19159664,14.6672269 7.95630252,14.8285714 7.82857143,14.8722689 C7.67058824,14.9294118 7.39495798,14.9327731 7.22016807,14.9294118 C7.05546218,14.9260504 6.88739496,14.9327731 6.73613445,14.9294118 L3.21680672,14.9294118 C2.78991597,14.9294118 2.21176471,15.0033613 1.85882353,15.3563025 C1.54957983,15.6689076 1.48235294,16.1226891 1.48235294,16.4487395 L1.52941176,21.2319328 L2.77647059,21.2319328 L2.77647059,17.9579832 C2.77647059,17.5647059 3.1092437,17.2453782 3.51596639,17.2453782 C3.92268908,17.2453782 4.25546218,17.5647059 4.25546218,17.9579832 L4.25546218,21.2319328 L8.36638655,21.2319328 L8.33613445,18.1058824 L8.31596639,16.6 C8.31596639,16.5092437 8.33613445,16.2201681 8.39327731,16.0857143 C8.45714286,15.9378151 8.62857143,15.7428571 8.62857143,15.7428571 L9.36134454,14.8184874 L11.0521008,12.6739496 L11.0521008,12.6739496 Z M22.8336134,14.3714286 C23.3512605,14.8890756 23.6235294,15.6084034 23.6235294,16.4554622 L23.5630252,22.3647059 C23.5630252,22.5294118 23.4218487,22.6638655 23.2504202,22.6638655 L14.0773109,22.6638655 C13.9058824,22.6638655 13.7647059,22.5294118 13.7647059,22.3647059 L13.8218487,16.6235294 L11.8084034,14.0756303 L9.80168067,16.6168067 L9.86218487,22.3579832 C9.86218487,22.5260504 9.7210084,22.6571429 9.54621849,22.6571429 L0.373109244,22.6571429 C0.198319328,22.6571429 0.0605042017,22.5226891 0.0605042017,22.3579832 L0,16.4453782 C0,15.6016807 0.272268908,14.8823529 0.789915966,14.3613445 C1.35462185,13.7966387 2.19159664,13.497479 3.21344538,13.497479 L6.57478992,13.497479 C6.8,13.497479 7.01512605,13.5176471 7.22016807,13.5478992 L11.189916,8.39831933 L11.1932773,8.39495798 L11.2,8.38487395 C11.210084,8.37142857 11.2268908,8.36134454 11.2369748,8.3512605 C11.2739496,8.30756303 11.3142857,8.26386555 11.3613445,8.23361345 C11.3815126,8.22016807 11.4016807,8.21344538 11.4218487,8.20336134 C11.4621849,8.17983193 11.5058824,8.15294118 11.5563025,8.13613445 C11.5596639,8.13277311 11.5663866,8.13613445 11.5697479,8.13277311 C11.5798319,8.12941176 11.5865546,8.12941176 11.5966387,8.12941176 C11.6605042,8.11260504 11.7277311,8.09915966 11.794958,8.09915966 C11.8117647,8.09915966 11.8252101,8.10588235 11.8420168,8.10588235 C11.902521,8.1092437 11.9596639,8.11596639 12.0168067,8.13277311 C12.0201681,8.13277311 12.0201681,8.13613445 12.0201681,8.13613445 L12.0168067,8.13277311 L12.0235294,8.13277311 C12.0268908,8.13277311 12.0268908,8.13613445 12.0268908,8.13613445 C12.0369748,8.1394958 12.0403361,8.1394958 12.0504202,8.1394958 C12.0537815,8.14285714 12.0605042,8.1394958 12.0638655,8.14285714 C12.1142857,8.15966387 12.1546218,8.18655462 12.2016807,8.21008403 C12.2184874,8.22016807 12.2420168,8.22689076 12.2588235,8.24033613 C12.3058824,8.27394958 12.3462185,8.31428571 12.3831933,8.35798319 C12.3966387,8.37142857 12.410084,8.37815126 12.4201681,8.39495798 L12.4268908,8.40168067 L12.4302521,8.40504202 L16.4,13.5579832 C16.605042,13.5277311 16.8201681,13.5109244 17.0453782,13.5109244 L20.4067227,13.5109244 C21.4319328,13.507563 22.2689076,13.8067227 22.8336134,14.3714286 Z" id="Equipo-_2Regular"></path>
        </g>
    </g>
</svg>

<svg width="24" height="24" viewBox="0 0 24 24" xmlns="http://www.w3.org/2000/svg"><path d="M17.728 8.734c-.236.219-.283.646-.283.969 0 .319.047.746.283.958.232.215.672.258 1.001.258.33 0 .767-.043.995-.255.232-.215.28-.639.28-.961 0-.323-.051-.75-.283-.969-.232-.215-.669-.255-.995-.255-.326 0-.763.04-.998.255zm-1.022 2.958c-.49-.45-.74-1.119-.74-1.99 0-.87.25-1.542.74-1.996.47-.437 1.153-.656 2.023-.656.874 0 1.55.219 2.024.66.487.453.733 1.125.733 1.996 0 .87-.249 1.54-.733 1.99-.47.433-1.15.655-2.024.655-.874-.003-1.553-.225-2.023-.659zM3.903 8.724c-.232.219-.283.646-.283.968 0 .32.05.747.28.962.228.212.668.255.994.255.326 0 .767-.043 1.002-.259.232-.215.282-.638.282-.958 0-.319-.05-.75-.282-.968-.235-.215-.672-.258-.999-.258-.326 0-.766.043-.994.258zm.994 3.617c-.87 0-1.55-.222-2.02-.655-.487-.45-.736-1.12-.736-1.99 0-.87.249-1.543.736-1.997.47-.437 1.15-.659 2.02-.659.871 0 1.553.219 2.024.656.49.454.74 1.126.74 1.996 0 .871-.25 1.54-.74 1.994-.474.433-1.153.655-2.024.655zm6.83-6.817a.726.726 0 01-.735-.719l.016-3.086a.727.727 0 01.74-.709h.003c.41.003.74.323.736.72l-.016 3.085a.727.727 0 01-.74.71h-.003zm-3.213.713L7.126 4.882a.695.695 0 01.007-1.008.76.76 0 011.045.003l1.388 1.355a.701.701 0 01-.003 1.012.755.755 0 01-1.049-.007zm5.916.212a.757.757 0 01-.52-.205.695.695 0 01-.007-1.009l1.388-1.354a.762.762 0 011.048-.007c.29.276.293.73.004 1.008l-1.388 1.355a.74.74 0 01-.525.212zm7.664 14.786l.047-4.783c0-.326-.064-.78-.376-1.092-.35-.353-.931-.424-1.358-.424h-3.362c-.043 0-.097-.003-.144 0h-.014c-.154.003-.319-.003-.484 0-.178.003-.45 0-.608-.057a1.49 1.49 0 01-.454-.31c-.1-.11-.37-.477-.37-.477l-2.4-3.112v1.704l1.691 2.141.733.925s.171.195.235.342c.06.135.078.424.078.515l-.017 1.506-.034 3.122h4.111v-3.274c0-.396.333-.712.74-.712.406 0 .74.32.74.712v3.274h1.246zm-11.042-8.561V10.97l-2.4 3.116s-.269.366-.37.477c-.09.104-.326.266-.453.31-.158.056-.434.06-.609.056-.165-.003-.333.004-.484 0h-3.52c-.426 0-1.004.074-1.357.427-.31.313-.377.767-.377 1.093l.047 4.783h1.247v-3.274c0-.393.333-.713.74-.713s.74.32.74.713v3.274h4.11l-.03-3.126-.02-1.506c0-.09.02-.38.077-.514.064-.148.236-.343.236-.343l.732-.925 1.691-2.144zm11.782 1.697c.517.518.79 1.237.79 2.084l-.061 5.91c0 .164-.141.299-.313.299h-9.173a.307.307 0 01-.312-.3l.057-5.74-2.014-2.548-2.006 2.54.06 5.742c0 .168-.141.3-.316.3H.373a.305.305 0 01-.312-.3L0 16.445c0-.843.272-1.563.79-2.084.565-.564 1.402-.864 2.423-.864h3.362c.225 0 .44.02.645.05l3.97-5.149.003-.003.007-.01c.01-.014.027-.024.037-.034a.588.588 0 01.124-.117c.02-.014.04-.02.06-.03.041-.024.085-.051.135-.068.004-.003.01 0 .014-.003.01-.004.017-.004.027-.004a.787.787 0 01.198-.03c.017 0 .03.007.047.007a.758.758 0 01.178.03l-.003-.003h.007c.003 0 .003.003.003.003.01.003.013.003.023.003.004.004.01 0 .014.004.05.017.09.044.138.067.016.01.04.017.057.03a.688.688 0 01.124.118c.014.013.027.02.037.037l.007.007.003.003 3.97 5.153c.205-.03.42-.047.645-.047h3.362c1.025-.003 1.862.296 2.427.86z" fill="#5CB615" fill-rule="nonzero"/></svg>
